T: Hag At The Spinning Wheel, The
M: 6/8
L: 1/8
K: Gmaj
~G3 B2G|BcA B2D|~G3 cAG|F2G AFD|~G3 B2G|BcA Bge|fed cAF|1 GAG G2D:|2 GAG|:BAG AFD|~D3 AFD|~D3 AFD|EFG ABc|BAG AFD|~D3 FEF|ded cAF|1 GAG G2c:|2 G|:GBd gba|gdB ecA|dBG cAG|F2G AFD|GBd gba|gdB ~e3|fed cAF|1 GAG G2D:|2 G|:BAG Afd|Bfd Agd|Bfd AFD|EFG ABc|BAG AFD|~D3 FEF|ded cAF|1 GAG G2c:|2 G
